assets/images/icon_facebook.svg

<?xml version="1.0" encoding="utf-8"?>
<!-- Generator: Adobe Illustrator 16.0.0, SVG Export Plug-In . SVG Version: 6.00 Build 0)  -->
<!DOCTYPE svg PUBLIC "-//W3C//DTD SVG 1.1//EN" "http://www.w3.org/Graphics/SVG/1.1/DTD/svg11.dtd">
<svg version="1.1" id="Layer_1" xmlns="http://www.w3.org/2000/svg" xmlns:xlink="http://www.w3.org/1999/xlink" x="0px" y="0px"
	 width="266.893px" height="266.895px" viewBox="0 0 266.893 266.895" enable-background="new 0 0 266.893 266.895"
	 xml:space="preserve">
<path id="Blue_1_" fill="#3C5A99" d="M248.082,262.307c7.854,0,14.223-6.369,14.223-14.225V18.812
	c0-7.857-6.368-14.224-14.223-14.224H18.812c-7.857,0-14.224,6.367-14.224,14.224v229.27c0,7.855,6.366,14.225,14.224,14.225
	H248.082z"/>
<path id="f" fill="#FFFFFF" d="M182.409,262.307v-99.803h33.499l5.016-38.895h-38.515V98.777c0-11.261,3.127-18.935,19.275-18.935
	l20.596-0.009V45.045c-3.562-0.474-15.788-1.533-30.012-1.533c-29.695,0-50.025,18.126-50.025,51.413v28.684h-33.585v38.895h33.585
	v99.803H182.409z"/>
</svg>

<?xml version="1.0" encoding="UTF-8" standalone="no"?>
<!DOCTYPE svg PUBLIC "-//W3C//DTD SVG 1.1//EN" "http://www.w3.org/Graphics/SVG/1.1/DTD/svg11.dtd">
<svg width="100%" height="100%" viewBox="0 0 267 267" version="1.1" xmlns="http://www.w3.org/2000/svg" xmlns:xlink="http://www.w3.org/1999/xlink" xml:space="preserve" xmlns:serif="http://www.serif.com/" style="fill-rule:evenodd;clip-rule:evenodd;stroke-linejoin:round;stroke-miterlimit:1.41421;">
    <path id="Blue_1_" d="M248.082,262.307C255.936,262.307 262.305,255.938 262.305,248.082L262.305,18.812C262.305,10.955 255.937,4.588 248.082,4.588L18.812,4.588C10.955,4.588 4.588,10.955 4.588,18.812L4.588,248.082C4.588,255.937 10.954,262.307 18.812,262.307L248.082,262.307Z" style="fill:rgb(38,50,56);fill-rule:nonzero;"/>
    <path id="f" d="M182.409,262.307L182.409,162.504L215.908,162.504L220.924,123.609L182.409,123.609L182.409,98.777C182.409,87.516 185.536,79.842 201.684,79.842L222.28,79.833L222.28,45.045C218.718,44.571 206.492,43.512 192.268,43.512C162.573,43.512 142.243,61.638 142.243,94.925L142.243,123.609L108.658,123.609L108.658,162.504L142.243,162.504L142.243,262.307L182.409,262.307Z" style="fill:white;fill-rule:nonzero;"/>
</svg>
